_includes/icons/color-bootstrap.svg

<svg fill="#666" height="50" viewBox="0 0 48 48" width="50" xmlns="http://www.w3.org/2000/svg"><path d="m42 37c0 2.762-2.238 5-5 5h-26c-2.761 0-5-2.238-5-5v-26c0-2.762 2.239-5 5-5h26c2.762 0 5 2.238 5 5z" fill="#673ab7"/><path d="m33.03 25.6c-.65-.9-1.59-1.52-2.8-1.85 0 0 1.02-.37 1.94-1.75.55-.88.83-1.94.83-3.18 0-2.15-.78-3.8-2.34-4.93s-3.32-1.89-6.31-1.89h-9.35v24h10.43c2.83-.02 4.96-.63 6.41-1.8 1.44-1.19 2.16-2.95 2.16-5.3 0-1.3-.32-2.4-.97-3.3zm-12.03-9.6h4.25c1.52 0 2.75 1.23 2.75 2.75s-1.23 2.75-2.75 2.75c-.08 0-4.25 0-4.25 0zm5 16h-5v-6h5c1.66 0 3 1.34 3 3s-1.34 3-3 3z" fill="#fff"/></svg>

<svg xmlns="http://www.w3.org/2000/svg" viewBox="0 0 48 48" width="50" height="50" fill="#666"><path d="M42,37c0,2.762-2.238,5-5,5H11c-2.761,0-5-2.238-5-5V11c0-2.762,2.239-5,5-5h26c2.762,0,5,2.238,5,5 V37z" fill="#673ab7"/><path d="M33.03,25.6c-0.65-0.9-1.59-1.52-2.8-1.85c0,0,1.02-0.37,1.94-1.75c0.55-0.88,0.83-1.94,0.83-3.18 c0-2.15-0.78-3.8-2.34-4.93C29.1,12.76,27.34,12,24.35,12H15v24h10.43c2.83-0.02,4.96-0.63,6.41-1.8c1.44-1.19,2.16-2.95,2.16-5.3 C34,27.6,33.68,26.5,33.03,25.6z M21,16c0,0,4.17,0,4.25,0c1.52,0,2.75,1.23,2.75,2.75c0,1.52-1.23,2.75-2.75,2.75 c-0.08,0-4.25,0-4.25,0V16z M26,32h-5v-6h5c1.66,0,3,1.34,3,3C29,30.66,27.66,32,26,32z" fill="#fff"/></svg>
